!!! OTL: Berkowitz261
!!! Chapter: 1
!!! Section: II
!!! Page: 61
!!! Mode: 
!!! Encoder: DJB
**kern
*staff1
*I"Piano
=1-
*clefG2
*k[f#c#g#d#]
*c#:
*met(c|)
*M2/2
4r
4r
4r
4g#/
=2
4cc#\
4c#/
4c#/
4d#/
=3
4.e/
8f#/
4g#/
4g#/
=4
4cc#\
4cc#\
4ee\
4dd#\
=5
4cc#\
4b#\
4r
4g#/
=6
4a/
8a/L
8g#/J
4f#/
8g#/L
8a/J
=7
4.b\
8a/
4g#/
4B/
=8
!!linebreak:original
4.b\
8a/
4g#/
4f#/
=9
2e/
4r
4b\
=10
4.a/
8g#/
4f#/
4a/
=11
4.g#/
8f#/
4e/
4g#/
=12
4.f#/
8e/
4d#/
4c#/
=13
4c#/
4B#/
4r
4g#/
=14
4c#/
4cc#\
4cc#\
4b\
=15
4.a/
8g#/
4f#/
8e/L
8f#/J
=16
!!linebreak:original
4.g#/
8a/
4g#/
4b#\
=17
2cc#\
2r
==
*-
